X:1
T:Pohlsk dans
T:(Totakt-pols, nr. JMB-77)
S:efter Jens Millersen Bjerg
R:Totakt-pols
O:Husby, Ringkbing amt, Danmark
N:Lt nr. 15 p CD:n "Totakt-pols" av ke Persson, Ethel Wieslander m fl. Noterna kommer frn nothftet som kan kpas med CD:n s vissa avvikelser kan frekomma. Lten har dr beteckningen JMB-77. Danmark|Fler ltar frn Danmark...
M:2/4
L:1/16
K:D
|: (3(A2B2c2) d4 | (B2G2) !trill!F4 | G2E2E2G2 | F2(AF) D2D2 | (3(A2B2c2) d4 | e2ef g4 | (gf)ed (cB)AB | B4 A4 :|
|: (3(e2f2g2) a4 | (f2d2) !trill!c4 | d2B2B2d2 | c2(ec) A2A2 | (3(A2B2c2) d4 | (B2G2) !trill!F4 | (ag)fe (dc)Bc | (c2d2) d4 :|
